svg/clipboard-twotone.svg

<svg xmlns="http://www.w3.org/2000/svg" width="24" height="24" viewBox="0 0 24 24">
	<path d="M6 4h4v2h4v-2h4v16h-12v-16Z" fill="currentColor" fill-opacity="0">
		<animate attributeName="fill-opacity" begin="0.9s" dur="0.15s" fill="freeze" to="0.3" />
	</path>
	<g fill="none" stroke="currentColor" stroke-linecap="round" stroke-linejoin="round">
		<path d="M12 3h7v18h-14v-18h7Z" stroke-width="2" stroke-dasharray="66">
			<animate attributeName="stroke-dashoffset" dur="0.6s" fill="freeze" values="66;0" />
		</path>
		<path d="M14.5 3.5v3h-5v-3" stroke-dasharray="14" stroke-dashoffset="14">
			<animate attributeName="stroke-dashoffset" begin="0.7s" dur="0.2s" fill="freeze" to="0" />
		</path>
	</g>
</svg>

<svg xmlns="http://www.w3.org/2000/svg" width="24" height="24" viewBox="0 0 24 24">
	<g fill="none" stroke="currentColor" stroke-width="2" stroke-linecap="round" stroke-linejoin="round">
		<path d="M12 3h7v18h-14v-18h7Z" stroke-dasharray="72" stroke-dashoffset="72">
			<animate attributeName="stroke-dashoffset" values="72;0" dur="0.6s" fill="freeze" />
		</path>
		<path d="M14.5 3.5v3h-5v-3" stroke-width="1" stroke-dasharray="12" stroke-dashoffset="12">
			<animate attributeName="stroke-dashoffset" values="12;0" begin="0.7s" dur="0.2s" fill="freeze" />
		</path>
	</g>
	<path d="M6 4H10V6H14V4H18V20H6V4Z" fill="currentColor" fill-opacity="0">
		<animate attributeName="fill-opacity" values="0;0.3" begin="1s" dur="0.15s" fill="freeze" />
	</path>
</svg>
